img/made-des.svg

<svg width="110" height="22" viewBox="0 0 110 22" fill="none" xmlns="http://www.w3.org/2000/svg">
<g opacity="0.5">
<path d="M8.66602 19.0918H7.54688V17H1.42383V19.0977H0.298828L0.292969 16.0801H0.990234C1.35742 15.666 1.64844 15.1113 1.86328 14.416C2.08203 13.7168 2.21875 12.9512 2.27344 12.1191L2.46094 8.46875H7.56445V16.0801H8.67773L8.66602 19.0918ZM2.27344 16.0801H6.43359V9.39453H3.54492L3.42188 11.9023C3.37109 12.8828 3.24023 13.7188 3.0293 14.4102C2.82227 15.1016 2.57031 15.6582 2.27344 16.0801ZM13.9453 10.6602H15.0293V17H13.9453V12.377L11.0215 17H9.9375V10.6602H11.0215V15.2891L13.9453 10.6602ZM20.2559 12.3945C20.2559 12.0977 20.1426 11.8633 19.916 11.6914C19.6895 11.5156 19.3789 11.4277 18.9844 11.4277C18.6016 11.4277 18.2812 11.5273 18.0234 11.7266C17.7695 11.9258 17.6426 12.1602 17.6426 12.4297H16.5645C16.5645 11.8789 16.7949 11.4277 17.2559 11.0762C17.7168 10.7246 18.293 10.5488 18.9844 10.5488C19.7266 10.5488 20.3047 10.709 20.7188 11.0293C21.1328 11.3457 21.3398 11.7988 21.3398 12.3887C21.3398 12.6738 21.2539 12.9355 21.082 13.1738C20.9102 13.4121 20.666 13.6016 20.3496 13.7422C21.0879 13.9922 21.457 14.4844 21.457 15.2188C21.457 15.8008 21.2324 16.2617 20.7832 16.6016C20.334 16.9414 19.7344 17.1113 18.9844 17.1113C18.2539 17.1113 17.6504 16.9336 17.1738 16.5781C16.7012 16.2188 16.4648 15.7344 16.4648 15.125H17.543C17.543 15.4336 17.6797 15.6992 17.9531 15.9219C18.2305 16.1406 18.5742 16.25 18.9844 16.25C19.3984 16.25 19.7324 16.1543 19.9863 15.9629C20.2402 15.7715 20.3672 15.5234 20.3672 15.2188C20.3672 14.8633 20.2598 14.6094 20.0449 14.457C19.834 14.3008 19.5039 14.2227 19.0547 14.2227H17.9707V13.3086H19.1484C19.8867 13.2891 20.2559 12.9844 20.2559 12.3945ZM26.7773 17C26.7148 16.875 26.6641 16.6523 26.625 16.332C26.1211 16.8555 25.5195 17.1172 24.8203 17.1172C24.1953 17.1172 23.6816 16.9414 23.2793 16.5898C22.8809 16.2344 22.6816 15.7852 22.6816 15.2422C22.6816 14.582 22.9316 14.0703 23.4316 13.707C23.9355 13.3398 24.6426 13.1562 25.5527 13.1562H26.6074V12.6582C26.6074 12.2793 26.4941 11.9785 26.2676 11.7559C26.041 11.5293 25.707 11.416 25.2656 11.416C24.8789 11.416 24.5547 11.5137 24.293 11.709C24.0312 11.9043 23.9004 12.1406 23.9004 12.418H22.8105C22.8105 12.1016 22.9219 11.7969 23.1445 11.5039C23.3711 11.207 23.6758 10.9727 24.0586 10.8008C24.4453 10.6289 24.8691 10.543 25.3301 10.543C26.0605 10.543 26.6328 10.7266 27.0469 11.0938C27.4609 11.457 27.6758 11.959 27.6914 12.5996V15.5176C27.6914 16.0996 27.7656 16.5625 27.9141 16.9062V17H26.7773ZM24.9785 16.1738C25.3184 16.1738 25.6406 16.0859 25.9453 15.9102C26.25 15.7344 26.4707 15.5059 26.6074 15.2246V13.9238H25.7578C24.4297 13.9238 23.7656 14.3125 23.7656 15.0898C23.7656 15.4297 23.8789 15.6953 24.1055 15.8867C24.332 16.0781 24.623 16.1738 24.9785 16.1738ZM33.4922 10.6602H34.5762V17H33.4922V12.377L30.5684 17H29.4844V10.6602H30.5684V15.2891L33.4922 10.6602ZM33.7852 8.35156C33.7852 8.82422 33.623 9.20508 33.2988 9.49414C32.9785 9.7793 32.5566 9.92188 32.0332 9.92188C31.5098 9.92188 31.0859 9.77734 30.7617 9.48828C30.4375 9.19922 30.2754 8.82031 30.2754 8.35156H31.1602C31.1602 8.625 31.2344 8.83984 31.3828 8.99609C31.5312 9.14844 31.748 9.22461 32.0332 9.22461C32.3066 9.22461 32.5195 9.14844 32.6719 8.99609C32.8281 8.84375 32.9062 8.62891 32.9062 8.35156H33.7852ZM41.4961 17H40.4121V14.293H37.5V17H36.4102V10.6602H37.5V13.4082H40.4121V10.6602H41.4961V17Z" fill="white"/>
<path fill-rule="evenodd" clip-rule="evenodd" d="M103.666 21.936H104.66V18.616L107.705 21.591C107.787 21.655 107.873 21.718 107.958 21.778C108.029 21.826 108.099 21.869 108.172 21.908C108.235 21.937 108.303 21.967 108.373 21.979C108.445 21.994 108.518 22.001 108.59 22.001C108.738 22.001 108.887 21.976 109.026 21.91C109.149 21.85 109.256 21.766 109.346 21.661C109.438 21.552 109.502 21.425 109.548 21.292C109.594 21.144 109.617 20.989 109.617 20.838V17.72H108.621V21.031L105.57 18.029C105.333 17.797 105.043 17.621 104.701 17.621C104.568 17.621 104.439 17.65 104.316 17.703C104.197 17.757 104.084 17.83 103.982 17.919C103.889 18.008 103.81 18.115 103.753 18.232C103.694 18.351 103.665 18.477 103.665 18.608V21.936H103.666ZM88.75 14.85H92.239V8.59201L103.75 14.352C104.992 14.969 106.873 15.116 108.082 14.352C109.264 13.608 109.617 12.319 109.617 10.993V0.126007H106.108H68.859C68.171 0.126007 67.495 0.230998 66.841 0.434998C66.202 0.635998 65.607 0.930991 65.073 1.33499C64.553 1.72599 64.133 2.20601 63.811 2.76401C63.473 3.34901 63.328 3.99299 63.328 4.66199C63.328 5.30399 63.46 5.91501 63.743 6.48901C64.02 7.04401 64.386 7.53 64.856 7.936C65.329 8.35201 65.868 8.66401 66.458 8.88101C67.063 9.10901 67.694 9.22101 68.343 9.22101H82.749V11.399H60.903V0H57V14.852H60.904V14.85H81.375C82.01 14.85 82.628 14.735 83.226 14.512C83.803 14.293 84.34 13.981 84.809 13.575C85.268 13.177 85.635 12.701 85.909 12.156C86.196 11.591 86.323 10.982 86.323 10.353C86.323 9.722 86.196 9.12299 85.936 8.54999C85.682 7.99099 85.334 7.493 84.886 7.073C84.427 6.637 83.889 6.311 83.303 6.077C82.674 5.823 82.01 5.70999 81.33 5.70999H67.131V3.487H106.109V11.512L94.475 5.71799C91.778 4.37599 88.75 4.859 88.75 8.41V14.85ZM62.006 20.973H58.029V18.69H62.006V20.973ZM57.02 21.936H61.595C61.782 21.936 61.963 21.905 62.141 21.839C62.309 21.776 62.465 21.686 62.6 21.567C62.733 21.45 62.838 21.311 62.918 21.151C62.998 20.987 63.035 20.809 63.035 20.627V19.014C63.035 18.828 63 18.65 62.92 18.48C62.842 18.324 62.74 18.183 62.607 18.07C62.474 17.949 62.32 17.861 62.156 17.802C61.978 17.734 61.798 17.702 61.611 17.702H57.019V21.936H57.02ZM73.195 21.955V20.909H68.21V20.33H73.195V19.315H68.21V18.699H73.195V17.689H68.698C68.5 17.689 68.299 17.718 68.111 17.781C67.939 17.842 67.781 17.927 67.642 18.045C67.506 18.162 67.4 18.305 67.326 18.465C67.244 18.643 67.213 18.836 67.213 19.031V20.606C67.213 20.795 67.248 20.982 67.33 21.15C67.414 21.311 67.521 21.455 67.658 21.575C67.795 21.697 67.955 21.787 68.131 21.854C68.309 21.917 68.494 21.955 68.686 21.955H73.195ZM83.635 18.695V17.738H78.947C78.755 17.738 78.56 17.767 78.373 17.828C78.193 17.883 78.021 17.967 77.869 18.082C77.723 18.193 77.602 18.329 77.51 18.49C77.415 18.656 77.373 18.838 77.373 19.031C77.373 19.211 77.41 19.388 77.492 19.551C77.568 19.707 77.675 19.85 77.808 19.961C77.943 20.082 78.095 20.17 78.263 20.232C78.437 20.296 78.618 20.33 78.802 20.33H82.913V20.955H77.647V21.935H82.518C82.7 21.935 82.875 21.904 83.043 21.839C83.211 21.776 83.363 21.688 83.495 21.571C83.629 21.458 83.73 21.321 83.809 21.168C83.892 21.005 83.926 20.834 83.926 20.653C83.926 20.473 83.892 20.303 83.816 20.139C83.748 19.981 83.644 19.838 83.519 19.716C83.386 19.594 83.232 19.502 83.066 19.436C82.888 19.362 82.699 19.331 82.505 19.331H78.45V18.694H83.635V18.695ZM89.218 17.701H88.106V21.971H89.218V17.701ZM96.512 19.297V20.313H98.465V20.91H94.385V18.69H99.489V17.702H94.927C94.537 17.702 94.111 17.768 93.79 18.01C93.513 18.222 93.392 18.511 93.392 18.855V20.59C93.392 20.788 93.429 20.984 93.519 21.161C93.607 21.323 93.721 21.46 93.866 21.574C94.015 21.689 94.183 21.774 94.361 21.829C94.549 21.89 94.746 21.919 94.945 21.919H97.869C98.07 21.919 98.267 21.895 98.465 21.841C98.649 21.792 98.82 21.714 98.979 21.603C99.127 21.496 99.25 21.361 99.34 21.199C99.436 21.025 99.475 20.829 99.475 20.628V19.299H96.512V19.297Z" fill="white"/>
</g>
</svg>

<svg width="110" height="22" fill="none" xmlns="http://www.w3.org/2000/svg"><g opacity=".5" fill="#fff"><path d="M8.666 19.092h-1.12V17H1.425v2.098H.299L.293 16.08H.99c.367-.414.658-.969.873-1.664a9.84 9.84 0 00.41-2.297l.188-3.65h5.103v7.611h1.114l-.012 3.012zM2.273 16.08h4.16V9.395H3.546l-.123 2.507c-.05.98-.182 1.817-.393 2.508-.207.692-.459 1.248-.756 1.67zm11.672-5.42h1.084V17h-1.084v-4.623L11.021 17H9.938v-6.34h1.085v4.63l2.923-4.63zm6.31 1.735a.835.835 0 00-.339-.704c-.227-.175-.537-.263-.932-.263-.382 0-.703.1-.96.299-.255.199-.381.433-.381.703h-1.079c0-.551.23-1.002.692-1.354.46-.351 1.037-.527 1.728-.527.743 0 1.32.16 1.735.48.414.317.62.77.62 1.36 0 .285-.085.546-.257.785a1.755 1.755 0 01-.732.568c.738.25 1.107.742 1.107 1.477 0 .582-.225 1.043-.674 1.383-.449.34-1.049.51-1.799.51-.73 0-1.334-.178-1.81-.534-.473-.36-.71-.844-.71-1.453h1.079c0 .309.137.574.41.797.277.219.621.328 1.031.328.414 0 .748-.096 1.002-.287a.891.891 0 00.381-.744c0-.356-.107-.61-.322-.762-.211-.156-.541-.234-.99-.234H17.97v-.914h1.177c.739-.02 1.108-.325 1.108-.914zM26.778 17c-.062-.125-.113-.348-.152-.668-.504.523-1.105.785-1.805.785-.625 0-1.138-.176-1.54-.527a1.728 1.728 0 01-.598-1.348c0-.66.25-1.172.75-1.535.504-.367 1.21-.55 2.12-.55h1.055v-.499c0-.379-.113-.68-.34-.902-.226-.227-.56-.34-1.001-.34-.387 0-.711.098-.973.293-.262.195-.393.432-.393.709h-1.09c0-.316.112-.621.335-.914.226-.297.53-.531.914-.703.386-.172.81-.258 1.271-.258.73 0 1.303.184 1.717.55.414.364.629.866.644 1.507v2.918c0 .582.075 1.044.223 1.388V17h-1.137zm-1.799-.826c.34 0 .663-.088.967-.264.305-.176.526-.404.662-.685v-1.301h-.85c-1.327 0-1.991.389-1.991 1.166 0 .34.113.605.34.797.226.191.517.287.872.287zm8.514-5.514h1.084V17h-1.084v-4.623L30.568 17h-1.084v-6.34h1.084v4.63l2.924-4.63zm.293-2.308c0 .472-.162.853-.486 1.142-.32.285-.742.428-1.266.428-.523 0-.947-.145-1.271-.434-.325-.289-.487-.668-.487-1.136h.885c0 .273.074.488.223.644.148.152.365.229.65.229.274 0 .486-.077.639-.229.156-.152.234-.367.234-.644h.88zM41.496 17h-1.084v-2.707H37.5V17h-1.09v-6.34h1.09v2.748h2.912V10.66h1.084V17z"/><path fill-rule="evenodd" clip-rule="evenodd" d="M103.666 21.936h.994v-3.32l3.045 2.975a6.6 6.6 0 00.253.187c.071.048.141.091.214.13a.828.828 0 00.201.071c.072.015.145.022.217.022.148 0 .297-.025.436-.091a.993.993 0 00.32-.249c.092-.109.156-.236.202-.369.046-.148.069-.303.069-.454V17.72h-.996v3.311l-3.051-3.002c-.237-.232-.527-.408-.869-.408a.968.968 0 00-.385.082 1.373 1.373 0 00-.334.216 1.108 1.108 0 00-.229.313.837.837 0 00-.088.376v3.328h.001zM88.75 14.85h3.489V8.592l11.511 5.76c1.242.617 3.123.764 4.332 0 1.182-.744 1.535-2.033 1.535-3.359V.126H68.859c-.688 0-1.364.105-2.018.309a5.783 5.783 0 00-1.768.9c-.52.391-.94.871-1.262 1.429-.338.585-.483 1.229-.483 1.898 0 .642.132 1.253.415 1.827a4.602 4.602 0 001.113 1.447 5.038 5.038 0 001.602.945 5.31 5.31 0 001.885.34h14.406v2.178H60.903V0H57v14.852h3.904v-.002h20.471c.635 0 1.253-.115 1.851-.338a5.264 5.264 0 001.583-.937 4.592 4.592 0 001.1-1.419 3.935 3.935 0 00.414-1.803c0-.631-.127-1.23-.387-1.803a4.632 4.632 0 00-1.05-1.477 4.931 4.931 0 00-1.583-.996 5.231 5.231 0 00-1.973-.367H67.131V3.487h38.978v8.025L94.475 5.718c-2.697-1.342-5.725-.859-5.725 2.692v6.44zm-26.744 6.123h-3.977V18.69h3.977v2.283zm-4.986.963h4.575c.187 0 .368-.031.546-.097.168-.063.324-.153.459-.272.133-.117.238-.256.318-.416.08-.164.117-.342.117-.524v-1.613c0-.186-.035-.364-.115-.534a1.284 1.284 0 00-.313-.41 1.34 1.34 0 00-.451-.268 1.507 1.507 0 00-.545-.1h-4.592v4.234h.001zm16.175.019v-1.046H68.21v-.579h4.985v-1.015H68.21v-.616h4.985v-1.01h-4.497c-.198 0-.399.029-.587.092-.172.061-.33.146-.469.264a1.235 1.235 0 00-.429.986v1.575c0 .189.035.376.117.544.084.161.191.305.328.425.137.122.297.212.473.279.178.063.363.101.555.101h4.509zm10.44-3.26v-.957h-4.688c-.192 0-.387.029-.574.09-.18.055-.352.139-.504.254a1.352 1.352 0 00-.359.408 1.07 1.07 0 00-.137.541c0 .18.037.357.119.52.076.156.183.299.316.41.135.121.287.209.455.271.174.064.355.098.539.098h4.111v.625h-5.266v.98h4.871c.182 0 .357-.031.525-.096.168-.063.32-.151.452-.268.134-.113.235-.25.314-.403a1.11 1.11 0 00.117-.515 1.2 1.2 0 00-.11-.514 1.335 1.335 0 00-.297-.423 1.467 1.467 0 00-.453-.28 1.449 1.449 0 00-.561-.105H78.45v-.637h5.185v.001zm5.583-.994h-1.112v4.27h1.112v-4.27zm7.294 1.596v1.016h1.953v.597h-4.08v-2.22h5.104v-.988h-4.562c-.39 0-.816.066-1.137.308-.277.212-.398.501-.398.845v1.735c0 .198.037.394.127.571.088.162.202.299.347.413.149.115.317.2.495.255.188.061.385.09.584.09h2.924c.201 0 .398-.024.596-.078.184-.049.355-.127.514-.238a1.24 1.24 0 00.361-.404 1.17 1.17 0 00.135-.571v-1.329h-2.963v-.002z"/></g></svg>
